X: 34559
T: Rip The Calico
R: reel
M: 4/4
K: Dmajor
|:faaf g2 fg|ed (3Bcd e3g|faaf g2 fg|efdB A4|
faaf g2 fg|ed (3Bcd e3g|fa a2 baaf|edef g2 fe|
|:d3c defd|edBd egfe|d2 dc d2 fd|efdB A3B:|
|:dB~B2 g2 fg|edBd egfe|dB~B2 g2 fg|efdB A3B:|

